src/assets/back.svg

<svg height="16" viewBox="0 0 19 16" width="19" xmlns="http://www.w3.org/2000/svg"><path d="m7.65167 15.3606c.70211 0 1.20097-.4945 1.20097-1.1597 0-.3555-.14999-.6551-.37146-.8668l-2.1875-2.2048-3.7462-3.44747 3.7462-3.44743 2.1875-2.20793c.22147-.22146.37146-.51128.37146-.86677 0-.665289-.49886-1.1597-1.20097-1.1597-.30579 0-.60093.121601-.87167.395447l-6.39342 6.383653c-.241893.23523-.38658.56853-.38658.90273s.144687.6675.38658.90273l6.40674 6.39384c.25742.2539.55256.3822.85835.3822zm-1.72054-6.46182h11.51817c.7438 0 1.2444-.49486 1.2444-1.21695s-.5006-1.21695-1.2444-1.21695h-11.51817l-3.55755.20153c-.62708 0-1.04648.41007-1.04648 1.01542s.4194 1.01542 1.04648 1.01542z" fill-opacity=".85"/></svg>

<?xml version="1.0" encoding="UTF-8"?>
<svg width="19px" height="16px" viewBox="0 0 19 16" version="1.1" xmlns="http://www.w3.org/2000/svg" xmlns:xlink="http://www.w3.org/1999/xlink">
    <title>back</title>
    <g id="Page-1" stroke="none" stroke-width="1" fill="none" fill-rule="evenodd" fill-opacity="0.85">
        <g id="arrow.left" fill="#000000" fill-rule="nonzero">
            <path d="M7.65167,15.3606 C8.35378,15.3606 8.85264,14.8661 8.85264,14.2009 C8.85264,13.8454 8.70265,13.5458 8.48118,13.3341 L6.29368,11.1293 L2.54748,7.68183 L6.29368,4.2344 L8.48118,2.02647 C8.70265,1.80501 8.85264,1.51519 8.85264,1.1597 C8.85264,0.494411 8.35378,0 7.65167,0 C7.34588,0 7.05074,0.121601 6.78,0.395447 L0.38658,6.7791 C0.144687,7.01433 0,7.34763 0,7.68183 C0,8.01603 0.144687,8.34933 0.38658,8.58456 L6.79332,14.9784 C7.05074,15.2323 7.34588,15.3606 7.65167,15.3606 Z M5.93113,8.89878 L17.4493,8.89878 C18.1931,8.89878 18.6937,8.40392 18.6937,7.68183 C18.6937,6.95974 18.1931,6.46488 17.4493,6.46488 L5.93113,6.46488 L2.37358,6.66641 C1.7465,6.66641 1.3271,7.07648 1.3271,7.68183 C1.3271,8.28718 1.7465,8.69725 2.37358,8.69725 L5.93113,8.89878 Z" id="back"></path>
        </g>
    </g>
</svg>
